svg/history.svg

<?xml version="1.0" encoding="UTF-8"?>
<svg xmlns="http://www.w3.org/2000/svg" xmlns:xlink="http://www.w3.org/1999/xlink" width="32" height="32" viewBox="0 0 32 32">
<path fill-rule="nonzero" fill="rgb(0%, 0%, 0%)" fill-opacity="1" d="M 3.828125 1.921875 C 3.65625 1.925781 3.496094 1.996094 3.375 2.117188 L 2.097656 3.464844 C 1.984375 3.585938 1.921875 3.742188 1.921875 3.90625 L 1.921875 24.320312 C 1.917969 24.339844 1.921875 24.363281 1.921875 24.382812 C 1.933594 25.71875 2.316406 26.9375 2.976562 27.859375 C 3.621094 28.765625 4.570312 29.390625 5.652344 29.433594 C 5.6875 29.4375 5.726562 29.441406 5.761719 29.441406 L 27.519531 29.441406 C 27.550781 29.441406 27.585938 29.4375 27.617188 29.433594 C 28.703125 29.394531 29.65625 28.769531 30.304688 27.859375 C 30.972656 26.921875 31.359375 25.679688 31.359375 24.320312 C 31.359375 22.960938 30.972656 21.71875 30.304688 20.78125 C 29.65625 19.875 28.707031 19.246094 27.628906 19.207031 C 27.59375 19.203125 27.554688 19.199219 27.519531 19.199219 L 24.960938 19.199219 L 24.960938 2.558594 C 24.960938 2.300781 24.804688 2.066406 24.566406 1.964844 C 24.324219 1.867188 24.050781 1.925781 23.867188 2.109375 L 21.765625 4.214844 L 19.652344 2.109375 C 19.402344 1.859375 18.996094 1.859375 18.746094 2.109375 L 16.640625 4.214844 L 14.53125 2.109375 C 14.410156 1.988281 14.25 1.921875 14.078125 1.921875 C 13.910156 1.921875 13.75 1.988281 13.628906 2.109375 L 11.519531 4.214844 L 9.414062 2.109375 C 9.164062 1.859375 8.757812 1.859375 8.507812 2.109375 L 6.398438 4.214844 L 4.292969 2.109375 C 4.171875 1.984375 4.003906 1.917969 3.828125 1.921875 M 5.761719 7.679688 L 14.71875 7.679688 L 14.71875 8.960938 L 5.761719 8.960938 Z M 16.640625 7.679688 L 21.121094 7.679688 L 21.121094 8.960938 L 16.640625 8.960938 Z M 5.761719 10.238281 L 10.238281 10.238281 L 10.238281 11.519531 L 5.761719 11.519531 Z M 12.160156 10.238281 L 21.121094 10.238281 L 21.121094 11.519531 L 12.160156 11.519531 Z M 5.761719 12.800781 L 8.960938 12.800781 L 8.960938 14.078125 L 5.761719 14.078125 Z M 10.878906 12.800781 L 15.359375 12.800781 L 15.359375 14.078125 L 10.878906 14.078125 Z M 17.28125 12.800781 L 21.121094 12.800781 L 21.121094 14.078125 L 17.28125 14.078125 Z M 5.761719 15.359375 L 12.800781 15.359375 L 12.800781 16.640625 L 5.761719 16.640625 Z M 14.71875 15.359375 L 21.121094 15.359375 L 21.121094 16.640625 L 14.71875 16.640625 Z M 24.320312 20.480469 L 27.519531 20.480469 C 28.160156 20.480469 28.769531 20.839844 29.261719 21.523438 C 29.3125 21.59375 29.351562 21.683594 29.398438 21.761719 L 9.085938 21.761719 C 8.941406 21.417969 8.757812 21.089844 8.542969 20.78125 C 8.46875 20.675781 8.390625 20.582031 8.3125 20.484375 C 13.109375 20.5 24.320312 20.480469 24.320312 20.480469 M 5.746094 20.480469 L 5.773438 20.480469 C 6.410156 20.488281 7.015625 20.84375 7.503906 21.523438 C 7.992188 22.210938 8.320312 23.207031 8.320312 24.320312 C 8.320312 25.433594 7.992188 26.429688 7.503906 27.117188 C 7.011719 27.800781 6.402344 28.160156 5.761719 28.160156 C 5.117188 28.160156 4.507812 27.800781 4.015625 27.117188 C 3.527344 26.429688 3.199219 25.433594 3.199219 24.320312 C 3.199219 23.207031 3.527344 22.210938 4.015625 21.523438 C 4.503906 20.84375 5.109375 20.488281 5.746094 20.480469 M 5.761719 22.398438 C 5.054688 22.398438 4.480469 23.257812 4.480469 24.320312 C 4.480469 25.378906 5.054688 26.238281 5.761719 26.238281 C 6.46875 26.238281 7.039062 25.378906 7.039062 24.320312 C 7.039062 23.257812 6.46875 22.398438 5.761719 22.398438 M 5.761719 22.398438 "/>
</svg>

<svg role="img" viewBox="0 0 32 32" height="32" width="32" xmlns="http://www.w3.org/2000/svg"><path d="M3.828 1.922a.66.66 0 0 0-.453.195L2.098 3.465a.644.644 0 0 0-.176.441V24.32c-.004.02 0 .043 0 .063.012 1.336.394 2.555 1.055 3.476.644.907 1.593 1.532 2.675 1.575.035.003.075.007.11.007H27.52a.822.822 0 0 0 .097-.007c1.086-.04 2.04-.664 2.688-1.575.668-.937 1.054-2.18 1.054-3.539 0-1.36-.386-2.601-1.054-3.539-.649-.906-1.598-1.535-2.676-1.574a1.03 1.03 0 0 0-.11-.008h-2.558V2.56a.648.648 0 0 0-.395-.594.645.645 0 0 0-.699.144l-2.101 2.106-2.114-2.106a.641.641 0 0 0-.906 0l-2.105 2.106-2.11-2.106a.635.635 0 0 0-.902 0l-2.11 2.106L9.414 2.11a.641.641 0 0 0-.906 0l-2.11 2.106L4.293 2.11a.624.624 0 0 0-.465-.187M5.762 7.68h8.957v1.28H5.762Zm10.879 0h4.48v1.28h-4.48ZM5.76 10.238h4.477v1.282H5.762Zm6.4 0h8.96v1.282h-8.96Zm-6.4 2.563h3.2v1.277h-3.2Zm5.118 0h4.48v1.277h-4.48Zm6.402 0h3.84v1.277h-3.84ZM5.76 15.359h7.04v1.282H5.76Zm8.958 0h6.402v1.282h-6.4Zm9.601 5.121h3.2c.64 0 1.25.36 1.742 1.043.05.07.09.16.136.239H9.086a5.346 5.346 0 0 0-.543-.98c-.074-.106-.152-.2-.23-.298 4.796.016 16.007-.004 16.007-.004m-18.574 0h.027c.637.008 1.243.364 1.73 1.043.49.688.817 1.684.817 2.797 0 1.114-.328 2.11-.816 2.797-.492.684-1.102 1.043-1.742 1.043-.645 0-1.254-.36-1.746-1.043-.489-.687-.817-1.683-.817-2.797 0-1.113.328-2.11.817-2.797.488-.68 1.093-1.035 1.73-1.043m.016 1.918c-.707 0-1.282.86-1.282 1.922 0 1.059.575 1.918 1.282 1.918.707 0 1.277-.86 1.277-1.918 0-1.062-.57-1.922-1.277-1.922m0 0"/></svg>
